;FLAVOR:Marlin
;TIME:2756
;Filament used: 2.87224m
;Layer height: 0.2
;MINX:83.955
;MINY:81.6
;MINZ:0.2
;MAXX:136.08
;MAXY:138.401
;MAXZ:20
;Generated with Cura_SteamEngine master
M140 S50
M105
M190 S50
M104 S200
M105
M109 S200
M82 ;absolute extrusion mode
M201 X500.00 Y500.00 Z100.00 E5000.00 ;Setup machine max acceleration
M203 X500.00 Y500.00 Z10.00 E50.00 ;Setup machine max feedrate
M204 P500.00 R1000.00 T500.00 ;Setup Print/Retract/Travel acceleration
M205 X8.00 Y8.00 Z0.40 E5.00 ;Setup Jerk
M220 S100 ;Reset Feedrate
M221 S100 ;Reset Flowrate

G28 ;Home

G92 E0 ;Reset Extruder
G1 Z2.0 F3000 ;Move Z Axis up
G1 X10.1 Y20 Z0.28 F5000.0 ;Move to start position
G1 X10.1 Y200.0 Z0.28 F1500.0 E15 ;Draw the first line
G1 X10.4 Y200.0 Z0.28 F5000.0 ;Move to side a little
G1 X10.4 Y20 Z0.28 F1500.0 E30 ;Draw the second line
G92 E0 ;Reset Extruder
G1 Z2.0 F3000 ;Move Z Axis up

G92 E0
G92 E0
G1 F2700 E-5
;LAYER_COUNT:100
;LAYER:0
M107
G0 F6000 X87.161 Y93.566 Z0.2
;TYPE:SKIRT
G1 F2700 E0
G1 F1200 X87.85 Y92.929 E0.03121
G1 X88.862 Y92.166 E0.07336
G1 X89.36 Y91.852 E0.09294
G1 X90.027 Y91.454 E0.11878
G1 X103.927 Y83.386 E0.65333
G1 X104.175 Y83.246 E0.6628
G1 X104.726 Y82.945 E0.68368
G1 X105.568 Y82.531 E0.71489
G1 X106.442 Y82.19 E0.74609
G1 X107.341 Y81.925 E0.77727
G1 X108.26 Y81.737 E0.80847
G1 X109.192 Y81.629 E0.83967
G1 X110.129 Y81.6 E0.87085
G1 X111.066 Y81.651 E0.90206
G1 X111.994 Y81.781 E0.93323
G1 X112.909 Y81.991 E0.96445
G1 X113.802 Y82.277 E0.99564
G1 X115.075 Y82.84 E1.04194
G1 X115.2 Y82.905 E1.04662
G1 X115.535 Y83.086 E1.05929
G1 X115.996 Y83.347 E1.07691
G1 X130.105 Y91.495 E1.61881
G1 X130.692 Y91.844 E1.64152
G1 X131.476 Y92.357 E1.67268
G1 X132.215 Y92.935 E1.70389
G1 X132.901 Y93.574 E1.73507
G1 X133.531 Y94.27 E1.76629
G1 X134.099 Y95.016 E1.79748
G1 X134.601 Y95.808 E1.82867
G1 X135.034 Y96.64 E1.85986
G1 X135.395 Y97.505 E1.89104
G1 X135.681 Y98.399 E1.92226
G1 X135.889 Y99.313 E1.95343
G1 X136.019 Y100.242 E1.98463
G1 X136.069 Y101.14 E2.01455
G1 X136.08 Y101.989 E2.04279
G1 X136.079 Y118.156 E2.5805
G1 X136.069 Y118.857 E2.60382
G1 X136.016 Y119.793 E2.635
G1 X135.883 Y120.722 E2.66622
G1 X135.671 Y121.635 E2.69739
G1 X135.383 Y122.528 E2.7286
G1 X135.019 Y123.392 E2.75978
G1 X134.583 Y124.223 E2.79099
G1 X134.078 Y125.013 E2.82218
G1 X133.508 Y125.757 E2.85335
G1 X132.876 Y126.45 E2.88455
G1 X132.187 Y127.087 E2.91576
G1 X131.447 Y127.663 E2.94695
G1 X130.715 Y128.141 E2.97602
G1 X129.972 Y128.584 E3.00479
G1 X115.942 Y136.681 E3.54357
G1 X115.376 Y136.998 E3.56515
G1 X114.539 Y137.421 E3.59634
G1 X113.669 Y137.771 E3.62753
G1 X112.772 Y138.046 E3.65873
G1 X111.855 Y138.244 E3.68994
G1 X110.925 Y138.362 E3.72112
G1 X109.988 Y138.401 E3.75231
G1 X109.051 Y138.36 E3.7835
G1 X108.121 Y138.239 E3.81469
G1 X107.205 Y138.04 E3.84587
G1 X106.309 Y137.763 E3.87706
G1 X105.439 Y137.411 E3.90828
G1 X104.895 Y137.144 E3.92843
G1 X104.508 Y136.939 E3.943
G1 X104.126 Y136.727 E3.95753
G1 X103.507 Y136.372 E3.98127
G1 X89.913 Y128.477 E4.50412
G1 X89.312 Y128.117 E4.52743
G1 X88.529 Y127.601 E4.55861
G1 X87.793 Y127.02 E4.5898
G1 X87.108 Y126.379 E4.62101
G1 X86.481 Y125.682 E4.65219
G1 X85.915 Y124.933 E4.68341
G1 X85.416 Y124.14 E4.71457
G1 X84.985 Y123.307 E4.74577
G1 X84.627 Y122.44 E4.77697
G1 X84.345 Y121.545 E4.80818
G1 X84.139 Y120.63 E4.83937
G1 X84.012 Y119.701 E4.87056
G1 X83.966 Y118.852 E4.89884
G1 X83.955 Y118.042 E4.92578
G1 X83.955 Y101.841 E5.46463
G1 X83.965 Y101.158 E5.48735
G1 X84.019 Y100.222 E5.51853
G1 X84.152 Y99.293 E5.54974
G1 X84.364 Y98.38 E5.58092
G1 X84.653 Y97.487 E5.61214
G1 X85.017 Y96.623 E5.64332
G1 X85.453 Y95.793 E5.6745
G1 X85.958 Y95.003 E5.70569
G1 X86.529 Y94.258 E5.73691
G1 X87.161 Y93.566 E5.76808
G0 F6000 X87.553 Y93.74
G1 F1200 X88.238 Y93.126 E5.79867
G1 X89.084 Y92.499 E5.8337
G1 X89.564 Y92.195 E5.85259
G1 X90.228 Y91.8 E5.87829
G1 X104.128 Y83.732 E6.41284
G1 X104.367 Y83.598 E6.42196
G1 X104.918 Y83.297 E6.44284
G1 X105.745 Y82.891 E6.47348
G1 X106.603 Y82.558 E6.50409
G1 X107.487 Y82.301 E6.53471
G1 X108.39 Y82.122 E6.56533
G1 X109.305 Y82.022 E6.59594
G1 X110.226 Y82.001 E6.62658
G1 X111.145 Y82.061 E6.65721
G1 X112.055 Y82.2 E6.68783
G1 X112.949 Y82.418 E6.71844
G1 X113.822 Y82.712 E6.74908
G1 X114.89 Y83.195 E6.78806
G1 X115.015 Y83.26 E6.79275
G1 X115.338 Y83.435 E6.80497
G1 X115.796 Y83.693 E6.82245
G1 X129.784 Y91.77 E7.35968
G1 X130.487 Y92.188 E7.38689
G1 X131.257 Y92.692 E7.4175
G1 X131.981 Y93.261 E7.44812
G1 X132.652 Y93.891 E7.47874
G1 X133.266 Y94.577 E7.50936
G1 X133.819 Y95.314 E7.54
G1 X134.305 Y96.096 E7.57062
G1 X134.722 Y96.917 E7.60125
G1 X135.066 Y97.771 E7.63187
G1 X135.334 Y98.651 E7.66247
G1 X135.525 Y99.552 E7.6931
G1 X135.637 Y100.466 E7.72373
G1 X135.669 Y101.145 E7.74634
G1 X135.68 Y101.989 E7.77441
G1 X135.679 Y118.15 E8.31193
G1 X135.669 Y118.851 E8.33525
G1 X135.616 Y119.77 E8.36586
G1 X135.483 Y120.681 E8.39649
G1 X135.272 Y121.577 E8.4271
G1 X134.984 Y122.452 E8.45774
G1 X134.621 Y123.298 E8.48836
G1 X134.186 Y124.109 E8.51897
G1 X133.682 Y124.88 E8.54961
G1 X133.113 Y125.604 E8.58023
G1 X132.484 Y126.276 E8.61085
G1 X131.799 Y126.891 E8.64146
G1 X131.063 Y127.444 E8.67208
G1 X130.51 Y127.797 E8.6939
G1 X129.772 Y128.237 E8.72248
G1 X115.747 Y136.332 E9.26108
G1 X115.181 Y136.649 E9.28266
G1 X114.359 Y137.064 E9.31328
G1 X113.504 Y137.406 E9.34391
G1 X112.622 Y137.672 E9.37455
G1 X111.721 Y137.86 E9.40517
G1 X110.807 Y137.97 E9.43578
G1 X109.887 Y138 E9.4664
G1 X108.968 Y137.951 E9.49701
G1 X108.056 Y137.821 E9.52765
G1 X107.159 Y137.613 E9.55828
G1 X106.284 Y137.328 E9.58888
G1 X105.081 Y136.79 E9.63271
G1 X104.701 Y136.588 E9.64703
G1 X104.324 Y136.379 E9.66136
G1 X103.708 Y136.026 E9.68498
G1 X90.119 Y128.133 E10.20766
G1 X89.518 Y127.773 E10.23096
G1 X88.75 Y127.266 E10.26157
G1 X88.028 Y126.695 E10.29219
G1 X87.359 Y126.063 E10.3228
G1 X86.747 Y125.375 E10.35342
G1 X86.197 Y124.636 E10.38406
G1 X85.713 Y123.853 E10.41468
G1 X85.299 Y123.031 E10.44529
G1 X84.958 Y122.176 E10.4759
G1 X84.692 Y121.294 E10.50655
G1 X84.504 Y120.393 E10.53716
G1 X84.395 Y119.479 E10.56777
G1 X84.366 Y118.846 E10.58885
G1 X84.355 Y118.042 E10.61559
G1 X84.355 Y101.847 E11.15424
G1 X84.365 Y101.164 E11.17696
G1 X84.419 Y100.245 E11.20758
G1 X84.552 Y99.334 E11.2382
G1 X84.763 Y98.438 E11.26882
G1 X85.052 Y97.563 E11.29946
G1 X85.415 Y96.717 E11.33008
G1 X85.85 Y95.906 E11.36069
G1 X86.354 Y95.136 E11.3913
G1 X86.923 Y94.412 E11.42193
G1 X87.553 Y93.74 E11.45257
G0 F6000 X87.944 Y93.919
G1 F1200 X88.626 Y93.327 E11.4826
G1 X89.306 Y92.832 E11.51058
G1 X89.769 Y92.539 E11.5288
G1 X90.429 Y92.146 E11.55435
G1 X104.329 Y84.078 E12.0889
G1 X104.559 Y83.949 E12.09767
G1 X105.11 Y83.648 E12.11855
G1 X105.921 Y83.25 E12.1486
G1 X106.764 Y82.926 E12.17864
G1 X107.632 Y82.678 E12.20866
G1 X108.519 Y82.507 E12.23871
G1 X109.418 Y82.416 E12.26876
G1 X110.321 Y82.404 E12.2988
G1 X111.221 Y82.472 E12.32882
G1 X112.112 Y82.62 E12.35886
G1 X112.986 Y82.846 E12.38888
G1 X113.837 Y83.148 E12.41892
G1 X114.706 Y83.549 E12.45075
G1 X114.831 Y83.614 E12.45544
G1 X115.142 Y83.783 E12.46721
G1 X115.595 Y84.04 E12.48453
G1 X129.696 Y92.183 E13.02612
G1 X130.283 Y92.532 E13.04883
G1 X131.038 Y93.027 E13.07886
G1 X131.746 Y93.587 E13.10888
G1 X132.402 Y94.208 E13.13893
G1 X133 Y94.884 E13.16894
G1 X133.537 Y95.611 E13.19901
G1 X134.007 Y96.382 E13.22904
G1 X134.407 Y97.192 E13.25909
G1 X134.733 Y98.034 E13.28912
G1 X134.984 Y98.901 E13.31914
G1 X135.157 Y99.788 E13.34919
G1 X135.252 Y100.686 E13.37923
G1 X135.269 Y101.151 E13.3947
G1 X135.28 Y101.989 E13.42258
G1 X135.279 Y118.144 E13.9599
G1 X135.269 Y118.845 E13.98321
G1 X135.216 Y119.747 E14.01327
G1 X135.084 Y120.64 E14.04329
G1 X134.873 Y121.519 E14.07336
G1 X134.585 Y122.375 E14.1034
G1 X134.223 Y123.202 E14.13342
G1 X133.789 Y123.994 E14.16346
G1 X133.286 Y124.744 E14.1935
G1 X132.719 Y125.447 E14.22353
G1 X132.093 Y126.097 E14.25355
G1 X131.411 Y126.69 E14.28361
G1 X130.305 Y127.454 E14.32832
G1 X129.572 Y127.891 E14.3567
G1 X115.551 Y135.983 E14.89513
G1 X114.985 Y136.3 E14.91671
G1 X114.179 Y136.706 E14.94673
G1 X113.339 Y137.039 E14.97678
G1 X112.473 Y137.297 E15.00684
G1 X111.588 Y137.477 E15.03687
G1 X110.691 Y137.578 E15.0669
G1 X109.788 Y137.599 E15.09694
G1 X108.887 Y137.54 E15.12697
G1 X107.994 Y137.402 E15.15702
G1 X107.118 Y137.185 E15.18704
G1 X106.264 Y136.892 E15.21707
G1 X105.266 Y136.436 E15.25356
G1 X104.894 Y136.238 E15.26758
G1 X104.523 Y136.032 E15.28169
G1 X103.908 Y135.68 E15.30526
G1 X90.325 Y127.79 E15.82772
G1 X89.724 Y127.43 E15.85102
G1 X88.97 Y126.932 E15.88108
G1 X88.264 Y126.37 E15.91109
G1 X87.61 Y125.747 E15.94113
G1 X87.014 Y125.069 E15.97116
G1 X86.48 Y124.34 E16.00121
G1 X86.012 Y123.567 E16.03127
G1 X85.615 Y122.756 E16.0613
G1 X85.291 Y121.913 E16.09134
G1 X85.043 Y121.045 E16.12136
G1 X84.873 Y120.158 E16.1514
G1 X84.766 Y118.84 E16.19538
G1 X84.755 Y118.042 E16.22193
G1 X84.755 Y101.853 E16.76038
G1 X84.765 Y101.17 E16.78309
G1 X84.818 Y100.268 E16.81315
G1 X84.951 Y99.375 E16.84318
G1 X85.162 Y98.497 E16.87321
G1 X85.45 Y97.641 E16.90325
G1 X85.813 Y96.814 E16.93329
G1 X86.247 Y96.022 E16.96333
G1 X86.75 Y95.272 E16.99336
G1 X87.317 Y94.569 E17.0234
G1 X87.944 Y93.919 E17.05344
G1 F2700 E12.05344
;MESH:Vcoin.stl
G0 F6000 X94.829 Y100.617
G0 X95.374 Y101.554
G0 X95.731 Y118.239
G0 X109.997 Y126.722
;TYPE:WALL-INNER
G1 F2700 E17.05344
G1 F1200 X109.637 Y126.518 E17.0672
G1 X95.555 Y118.341 E17.60881
G1 X95.554 Y101.658 E18.16369
G1 X109.634 Y93.485 E18.70517
G1 X109.998 Y93.278 E18.71909
G1 X124.48 Y101.64 E19.2753
G1 X124.48 Y118.36 E19.83141
G1 X109.997 Y126.722 E20.38764
G0 F6000 X109.999 Y127.182
;TYPE:WALL-OUTER
G1 F1200 X109.436 Y126.864 E20.40914
G1 X95.155 Y118.571 E20.95841
G1 X95.154 Y101.428 E21.52859
G1 X109.436 Y93.137 E22.07785
G1 X109.999 Y92.817 E22.09939
G1 X124.88 Y101.409 E22.67091
G1 X124.88 Y118.591 E23.24238
G1 X109.999 Y127.182 E23.81389
G0 F6000 X109.969 Y126.691
G0 X109.995 Y126.273
;TYPE:SKIN
G1 F1200 X109.83 Y126.179 E23.8202
G1 X95.945 Y118.117 E24.35422
G1 X95.944 Y101.882 E24.8942
G1 X109.827 Y93.824 E25.42809
G1 X109.997 Y93.728 E25.43459
G1 X124.09 Y101.865 E25.97584
G1 X124.09 Y118.135 E26.51698
G1 X109.995 Y126.273 E27.05831
G0 F6000 X109.857 Y126.515
G0 X95.731 Y118.239
G0 X95.664 Y117.6
G0 X96.104 Y117.6
G1 F1200 X97.113 Y118.609 E27.10577
G0 F6000 X96.892 Y118.989
G0 X98.24 Y119.772
G0 X98.461 Y119.392
G1 F1200 X96.104 Y117.034 E27.21666
G0 F6000 X96.104 Y116.468
G1 F1200 X99.81 Y120.175 E27.39101
G0 F6000 X99.589 Y120.555
G0 X100.939 Y121.339
G0 X101.16 Y120.959
G1 F1200 X96.104 Y115.903 E27.62882
G0 F6000 X96.104 Y115.337
G1 F1200 X102.509 Y121.742 E27.9301
G0 F6000 X102.287 Y122.122
G0 X103.637 Y122.905
G0 X103.858 Y122.526
G1 F1200 X96.104 Y114.771 E28.29484
G0 F6000 X96.104 Y114.206
G1 F1200 X105.207 Y123.309 E28.72302
G0 F6000 X104.986 Y123.689
G0 X106.335 Y124.472
G0 X106.556 Y124.092
G1 F1200 X96.104 Y113.64 E29.21465
G0 F6000 X96.104 Y113.074
G1 F1200 X107.905 Y124.875 E29.76973
G0 F6000 X107.683 Y125.255
G0 X109.033 Y126.039
G0 X109.254 Y125.659
G1 F1200 X96.104 Y112.509 E30.38827
G0 F6000 X96.104 Y111.943
G1 F1200 X110.154 Y125.993 E31.04914
G0 F6000 X110.513 Y125.787
G1 F1200 X96.104 Y111.377 E31.72692
G0 F6000 X96.104 Y110.812
G1 F1200 X110.872 Y125.58 E32.42156
G0 F6000 X111.23 Y125.372
G1 F1200 X96.104 Y110.246 E33.13304
G0 F6000 X96.104 Y109.68
G1 F1200 X111.589 Y125.165 E33.86141
G0 F6000 X111.947 Y124.958
G1 F1200 X96.104 Y109.115 E34.60661
G0 F6000 X96.104 Y108.549
G1 F1200 X112.306 Y124.752 E35.36873
G0 F6000 X112.665 Y124.544
G1 F1200 X96.104 Y107.983 E36.14771
G0 F6000 X96.104 Y107.418
G1 F1200 X113.023 Y124.337 E36.94353
G0 F6000 X113.382 Y124.13
G1 F1200 X96.104 Y106.852 E37.75623
G0 F6000 X96.104 Y106.286
G1 F1200 X113.74 Y123.923 E38.5858
G0 F6000 X114.1 Y123.716
G1 F1200 X96.104 Y105.72 E39.43227
G0 F6000 X96.104 Y105.155
G1 F1200 X114.458 Y123.509 E40.29559
G0 F6000 X114.817 Y123.302
G1 F1200 X96.104 Y104.589 E41.17579
G0 F6000 X96.104 Y104.023
G1 F1200 X115.175 Y123.095 E42.07286
G0 F6000 X115.534 Y122.888
G1 F1200 X96.104 Y103.458 E42.98678
G0 F6000 X96.104 Y102.892
G1 F1200 X115.893 Y122.681 E43.9176
G0 F6000 X116.251 Y122.474
G1 F1200 X96.104 Y102.326 E44.86527
G0 F6000 X96.238 Y101.895
G1 F1200 X116.61 Y122.267 E45.82351
G0 F6000 X116.968 Y122.06
G1 F1200 X96.597 Y101.688 E46.78172
G0 F6000 X96.954 Y101.48
G1 F1200 X117.327 Y121.852 E47.73998
G0 F6000 X117.686 Y121.646
G1 F1200 X97.312 Y101.272 E48.69831
G0 F6000 X97.67 Y101.064
G1 F1200 X118.045 Y121.439 E49.65669
G0 F6000 X118.403 Y121.232
G1 F1200 X98.028 Y100.856 E50.61509
G0 F6000 X98.386 Y100.648
G1 F1200 X118.762 Y121.024 E51.57352
G0 F6000 X119.12 Y120.817
G1 F1200 X98.744 Y100.441 E52.53194
G0 F6000 X99.102 Y100.233
G1 F1200 X119.479 Y120.611 E53.49044
G0 F6000 X119.838 Y120.404
G1 F1200 X99.46 Y100.025 E54.44898
G0 F6000 X99.818 Y99.818
G1 F1200 X120.196 Y120.196 E55.4075
G0 F6000 X120.555 Y119.989
G1 F1200 X100.175 Y99.61 E56.36609
G0 F6000 X100.534 Y99.402
G1 F1200 X120.913 Y119.782 E57.32468
G0 F6000 X121.273 Y119.575
G1 F1200 X100.892 Y99.195 E58.28331
G0 F6000 X101.249 Y98.987
G1 F1200 X121.631 Y119.368 E59.242
G0 F6000 X121.99 Y119.161
G1 F1200 X101.607 Y98.779 E60.20073
G0 F6000 X101.965 Y98.571
G1 F1200 X122.348 Y118.954 E61.15948
G0 F6000 X122.707 Y118.747
G1 F1200 X102.323 Y98.363 E62.11828
G0 F6000 X102.681 Y98.156
G1 F1200 X123.066 Y118.54 E63.0771
G0 F6000 X123.424 Y118.333
G1 F1200 X103.039 Y97.948 E64.03595
G0 F6000 X103.397 Y97.74
G1 F1200 X123.783 Y118.126 E64.99485
G0 F6000 X123.929 Y117.707
G1 F1200 X103.755 Y97.532 E65.94379
G0 F6000 X104.112 Y97.324
G1 F1200 X123.929 Y117.141 E66.87593
G0 F6000 X123.929 Y116.575
G1 F1200 X104.471 Y97.117 E67.79117
G0 F6000 X104.829 Y96.909
G1 F1200 X123.929 Y116.01 E68.6896
G0 F6000 X123.929 Y115.444
G1 F1200 X105.187 Y96.701 E69.57119
G0 F6000 X105.544 Y96.493
G1 F1200 X123.929 Y114.878 E70.43596
G0 F6000 X123.929 Y114.313
G1 F1200 X105.902 Y96.286 E71.2839
G0 F6000 X106.261 Y96.078
G1 F1200 X123.929 Y113.747 E72.11497
G0 F6000 X123.929 Y113.181
G1 F1200 X106.618 Y95.87 E72.92923
G0 F6000 X106.976 Y95.663
G1 F1200 X123.929 Y112.615 E73.72662
G0 F6000 X123.929 Y112.05
G1 F1200 X107.334 Y95.455 E74.5072
G0 F6000 X107.692 Y95.247
G1 F1200 X123.929 Y111.484 E75.27094
G0 F6000 X123.929 Y110.918
G1 F1200 X108.05 Y95.039 E76.01784
G0 F6000 X108.408 Y94.832
G1 F1200 X123.929 Y110.353 E76.7479
G0 F6000 X123.929 Y109.787
G1 F1200 X108.766 Y94.624 E77.46112
G0 F6000 X109.124 Y94.416
G1 F1200 X123.929 Y109.221 E78.1575
G0 F6000 X123.929 Y108.656
G1 F1200 X109.482 Y94.208 E78.83706
G0 F6000 X109.839 Y94
G1 F1200 X123.929 Y108.09 E79.49982
G0 F6000 X123.929 Y107.524
G1 F1200 X110.755 Y94.35 E80.11948
G0 F6000 X110.976 Y93.97
G0 X112.315 Y94.743
G0 X112.094 Y95.123
G1 F1200 X123.929 Y106.959 E80.67619
G0 F6000 X123.929 Y106.393
G1 F1200 X113.432 Y95.896 E81.16993
G0 F6000 X113.653 Y95.516
G0 X114.992 Y96.289
G0 X114.771 Y96.669
G1 F1200 X123.929 Y105.827 E81.6007
G0 F6000 X123.929 Y105.262
G1 F1200 X116.109 Y97.442 E81.96853
G0 F6000 X116.33 Y97.061
G0 X117.669 Y97.835
G0 X117.448 Y98.215
G1 F1200 X123.929 Y104.696 E82.27337
G0 F6000 X123.929 Y104.13
G1 F1200 X118.786 Y98.987 E82.51528
G0 F6000 X119.007 Y98.607
G0 X120.345 Y99.38
G0 X120.125 Y99.76
G1 F1200 X123.929 Y103.564 E82.69421
G0 F6000 X123.929 Y102.999
G1 F1200 X121.463 Y100.533 E82.8102
G0 F6000 X121.684 Y100.153
G0 X123.023 Y100.926
G0 X122.802 Y101.306
G1 F1200 X123.929 Y102.433 E82.86321
G0 F6000 X124.28 Y102.433
G1 F2700 E77.86321
;MESH:NONMESH
G0 F300 X124.28 Y102.433 Z0.4
G0 F6000 X124.37 Y102.433
G0 X124.304 Y118.259
G0 X109.998 Y126.852
G0 X109.999 Y127.291
;TIME_ELAPSED:138.299371
;LAYER:1
M106 S85
;TYPE:WALL-INNER
;MESH:Vcoin.stl
G1 F2700 E82.86321
G1 F1800 X101.463 Y122.408 E83.19029
G1 X94.997 Y118.663 E83.43882
G1 X94.996 Y101.336 E84.01512
G1 X101.462 Y97.593 E84.26361
G1 X109.999 Y92.708 E84.59075
G1 X124.974 Y101.354 E85.16588
G1 X124.974 Y118.646 E85.74101
G1 X109.999 Y127.291 E86.31612
